X:1
T:Marriage of Figaro (Overture Theme)
C:Wolfgang Amadeus Mozart
K:D
M:4/4
L:1/16
Q:1/4=160
%%MIDI program 0
% K.492 - Le nozze di Figaro - Presto
% Soft pp opening, then forte presto theme with ascending D major scale
"pp"D8 z8 | D8 z8 | D8 z8 | D8 z8 |
"f"DEFG ABcd d8 | d4 cBAG F4 E4 |
DEFG ABcd d8 | d4 BAGF E4 D4 |
EFGA BcdB A4 G4 | F4 GFED E4 F4 |
D16 |]
